X: 081243
T: Hennigan's Favorite
S: "Johnny O'Leary of Sliabh Luachra" (#181)
Z: B.Black
L: 1/8
M: 6/8
R: jig
K: A
d|: ceA ceA|aga fed|ceA ceA|Bc/B/A Bed|
ceA ceA|aga fed|c/A/B/c aec|ABA Aed :|
c2A BAA|aAA fed|cAA eAA|BcA Bed|
c2A eAA|aga fed|cBc aec|ABA A3 :|
c2e fee|aee fed|cA/B/c aec|BcB BAB|
cee fee|aee fed|cBc aec|ABA A3 :|
